!!!OTL: Ich kann des Abends nit schlafen gehn (Band 1), S. 201
!!!id: P0845
**kern
*clefG2
*k[f#]
*e:
{8e
=1
8.b
16a
16b
16b
8cc
=2
8.a
16g
8a}
=3
{16b
16a
=4
8g
16f#
8f#
16g
16a
16g
=5
8.f#
16e
8f#
8g
=6
8.e
16d#
8e}
=7
{8e
=8
8.b
16a
16b
16b
8cc
=9
8.a
16g
8a}
=10
{16b
16a
=11
8g
16g
16g
16g
16a
16b
16g
=12
8.f#
16e
8f#
8g
=13
8.e
16d#
8e}
==
*-
!!!minrhy: 16
!!!meters: 2/4 ]  ZZ[4
!!!cut: Ich kann des Abends nit schlafen gehn (Band 1), S. 201
!!!reg: Lothringen
!!!trd: PINCK, Louis: Verklingende Weisen, Bd 1, Metz 1928
!!!rhy1: X_  X_.XXXX_  X_.XX_
!!!rhy2: XX  X_XX_XXX  X_.XX_X_  X_.XX_
!!!key: P0845  16  E 2/4 ]  ZZ[4
!!!mod: HEPTATONIK HARMONISCH MOLL]  AMBITUS[6
!!!kad: 4141
!!!akz: 54_3b21_54_3b21_
!!!fot: 'a__b__a__as'
!!!for: 'a__b__a__c__
!!!fok: '^a_Sd_^a_$d_
!! PHRAS[AUFTAKTIG]
!!!fkt: Fenstergang, Liebe
!! LOTH VKL
!! PR[12] 2K[12] 2G[18] 3K[3] 3G[6] 4A[6] 4Ü[0] 5A[0] 6K[0] 6G[0]
!! 7K[0] 7G[0] 8A[0] MEHR[0] SI[45] ABS[33] SR[30] SP[15]
!! ST[8] 2k[12] 2g[15] 3k[6] 3g[9] 4d[0] 4ü[0] 5d[0] 6k[0] 6g[0]
!! 7k[0] 7g[0] 8d[0] mehr[0] si[42] dm[+3] sr[27] sp[15]
!! 1F[5] 2F[74] 3F[13] 4F[0] LF[0] 2P[0] 3P[8] 4P[0] TRI[0] DF[4] AB[38]
!! TF[0] U3K[0] U3[0] U4[0] U4Ü[0] U5[3] U6K[0] U6[0] U7K[3] U7[3]
!! N1[15] N2K[0] N2[18] N3K[29] N3[0] N4[15] N4Ü[0] N5[15] N6K[0] N6[0]
!!!n7k: 0] N7[0] O1[0] O2K[0] O2[0] O3K[0] O3[0] HÖ[0
